X: 0
T: The Ceilidh Band Reel
C: Neil Grant
M: 4/4
L: 1/8
K: D
|: "D"LD2 LD2 FEDF |"D"LA2 LA2 BAFA |"D"Ld2 Ld2 fede |"A"f2 e2 e2 f2 |
"D"LD2 LD2 FEDF |"D"LA2 LA2 BAFA |"D"d2 f2 "A7"efga |1"D"f2 d2 (d2 a2) :|2"D"f2 d2 d3 e ||
|:"D"f2 f2 defd |"A"e2 A2 A3 ^A |"G"B2 B2 GABG |"D"A2 D2 D3 F |
"Em"G2 G2 EFGE |"D"F2 A2 d2 A2 |"G"BAGF "A"EFGA |1"D"F2 D2 D2 e2 :|2"D"F2 D2 D2 |] 
W: Play Dashing White Sergeant once through at the end to finish the set.